Origami/48x48/apps/upwork.svg

<svg width="48" height="48" version="1.1" viewBox="0 0 48 48" xmlns="http://www.w3.org/2000/svg">
 <rect transform="matrix(0,-1,-1,0,0,0)" x="-44" y="-44" width="40" height="40" rx="3" ry="3" style="fill:#7cca3e"/>
 <path d="m7 4c-1.662 0-3 1.338-3 3v1c0-1.662 1.338-3 3-3h34c1.662 0 3 1.338 3 3v-1c0-1.662-1.338-3-3-3h-34z" style="fill:#ffffff;opacity:.2"/>
 <path d="m4 41v1c0 1.662 1.338 3 3 3h34c1.662 0 3-1.338 3-3v-1c0 1.662-1.338 3-3 3h-34c-1.662 0-3-1.338-3-3z" style="opacity:.2"/>
 <path d="m10 17v10c2.5e-4 0.215132 0.0352 0.428814 0.103516 0.632812 0 0 0.386285 1.157199 1.359375 2.21875 0.973089 1.061552 2.71568 2.148438 5.037109 2.148438s4.06402-1.086886 5.037109-2.148438c0.97309-1.061551 1.359375-2.21875 1.359375-2.21875 0.068312-0.203998 0.103266-0.41768 0.103516-0.632812v-2.968375c0.297106 0.399446 0.234171 0.403216 0.556641 0.810547 0.375777 0.474666 0.862008 0.870706 1.267578 1.339843-0.778363 4.263481-0.824219 9.875382-0.824219 10.817985h4c0-0.701341 0.113486-3.170303 0.400391-5.888672 1.362663 1.035567 2.827454 1.888672 4.599609 1.888672 3.033333 0 5.36748-1.422893 6.5625-3.300781 1.19502-1.877889 1.4375-3.976997 1.4375-5.699219 0-2.166667-1.13288-4.025877-2.646484-5.203125-1.513605-1.177248-3.409072-1.796875-5.353516-1.796875-2.511905 0-4.521033 0.170896-5.728516 2.049203-0.484053 0.752972-0.832976 1.598616-1.167968 2.449219-1.356445-1.839002-2.590728-3.712855-3.103516-4.498438v1.6e-5h-4v2 7.523438c-0.04171 0.101803-0.09067 0.274342-0.412109 0.625-0.401911 0.438448-0.90932 0.851562-2.087891 0.851562s-1.68598-0.413114-2.087891-0.851562c-0.321436-0.350658-0.370398-0.523197-0.412109-0.625v-9.523438zm23 4c1.055556 0 2.160089 0.380373 2.896484 0.953125 0.736396 0.572752 1.103516 1.213542 1.103516 2.046875 0 1.277778-0.25752 2.67867-0.8125 3.550781-0.55498 0.872112-1.220833 1.449219-3.1875 1.449219-0.45 0-1.523587-0.434997-2.708984-1.416016-0.341807-0.282874-0.685593-0.758856-1.03711-1.103515 0.389456-1.45945 0.796686-2.958473 1.38086-3.867188 0.761267-1.184193 1.377139-1.613281 2.365234-1.613281z" style="fill-rule:evenodd;opacity:.2"/>
 <path d="m10 16v10c2.5e-4 0.215132 0.0352 0.428814 0.103516 0.632812 0 0 0.386285 1.157199 1.359375 2.21875 0.973089 1.061552 2.71568 2.148438 5.037109 2.148438s4.06402-1.086886 5.037109-2.148438c0.97309-1.061551 1.359375-2.21875 1.359375-2.21875 0.068312-0.203998 0.103266-0.41768 0.103516-0.632812v-2.968375c0.297106 0.399446 0.234171 0.403216 0.556641 0.810547 0.375777 0.474666 0.862008 0.870706 1.267578 1.339843-0.778363 4.263481-0.824219 9.875382-0.824219 10.817985h4c0-0.701341 0.113486-3.170303 0.400391-5.888672 1.362663 1.035567 2.827454 1.888672 4.599609 1.888672 3.033333 0 5.36748-1.422893 6.5625-3.300781 1.19502-1.877889 1.4375-3.976997 1.4375-5.699219 0-2.166667-1.13288-4.025877-2.646484-5.203125-1.513605-1.177248-3.409072-1.796875-5.353516-1.796875-2.511905 0-4.521033 0.170896-5.728516 2.049203-0.484053 0.752972-0.832976 1.598616-1.167968 2.449219-1.356445-1.839002-2.590728-3.712855-3.103516-4.498438v1.6e-5h-4v2 7.523438c-0.04171 0.101803-0.09067 0.274342-0.412109 0.625-0.401911 0.438448-0.90932 0.851562-2.087891 0.851562s-1.68598-0.413114-2.087891-0.851562c-0.321436-0.350658-0.370398-0.523197-0.412109-0.625v-9.523438zm23 4c1.055556 0 2.160089 0.380373 2.896484 0.953125 0.736396 0.572752 1.103516 1.213542 1.103516 2.046875 0 1.277778-0.25752 2.67867-0.8125 3.550781-0.55498 0.872112-1.220833 1.449219-3.1875 1.449219-0.45 0-1.523587-0.434997-2.708984-1.416016-0.341807-0.282874-0.685593-0.758856-1.03711-1.103515 0.389456-1.45945 0.796686-2.958473 1.38086-3.867188 0.761267-1.184193 1.377139-1.613281 2.365234-1.613281z" style="fill-rule:evenodd;fill:#ffffff"/>
</svg>

<svg xmlns="http://www.w3.org/2000/svg" width="48" height="48" version="1.1" viewBox="0 0 48 48">
 <rect style="fill:#7cca3e" width="40" height="40" x="-44" y="-44" rx="3" ry="3" transform="matrix(0,-1,-1,0,0,0)"/>
 <path style="opacity:0.2;fill:#ffffff" d="M 7,4 C 5.338,4 4,5.338 4,7 L 4,8 C 4,6.338 5.338,5 7,5 l 34,0 c 1.662,0 3,1.338 3,3 L 44,7 C 44,5.338 42.662,4 41,4 L 7,4 Z"/>
 <path style="opacity:0.2" d="m 4,41 0,1 c 0,1.662 1.338,3 3,3 l 34,0 c 1.662,0 3,-1.338 3,-3 l 0,-1 c 0,1.662 -1.338,3 -3,3 L 7,44 C 5.338,44 4,42.662 4,41 Z"/>
 <path style="opacity:0.2;fill-rule:evenodd" d="m 10,17 0,10 c 2.5e-4,0.215132 0.0352,0.428814 0.103516,0.632812 0,0 0.386285,1.157199 1.359375,2.21875 C 12.43598,30.913114 14.178571,32 16.5,32 c 2.321429,0 4.06402,-1.086886 5.037109,-2.148438 0.97309,-1.061551 1.359375,-2.21875 1.359375,-2.21875 C 22.964796,27.428814 22.99975,27.215132 23,27 l 0,-2.968375 c 0.297106,0.399446 0.234171,0.403216 0.556641,0.810547 0.375777,0.474666 0.862008,0.870706 1.267578,1.339843 C 24.045856,30.445496 24,36.057397 24,37 l 4,0 c 0,-0.701341 0.113486,-3.170303 0.400391,-5.888672 C 29.763054,32.146895 31.227845,33 33,33 36.033333,33 38.36748,31.577107 39.5625,29.699219 40.75752,27.82133 41,25.722222 41,24 41,21.833333 39.86712,19.974123 38.353516,18.796875 36.839911,17.619627 34.944444,17 33,17 c -2.511905,0 -4.521033,0.170896 -5.728516,2.049203 -0.484053,0.752972 -0.832976,1.598616 -1.167968,2.449219 C 24.747071,19.65942 23.512788,17.785567 23,16.999984 23,17 23,17 23,17 l -4,0 0,2 0,7.523438 c -0.04171,0.101803 -0.09067,0.274342 -0.412109,0.625 C 18.18598,27.586886 17.678571,28 16.5,28 15.321429,28 14.81402,27.586886 14.412109,27.148438 14.090673,26.79778 14.041711,26.625241 14,26.523438 L 14,17 Z m 23,4 c 1.055556,0 2.160089,0.380373 2.896484,0.953125 C 36.63288,22.525877 37,23.166667 37,24 37,25.277778 36.74248,26.67867 36.1875,27.550781 35.63252,28.422893 34.966667,29 33,29 c -0.45,0 -1.523587,-0.434997 -2.708984,-1.416016 -0.341807,-0.282874 -0.685593,-0.758856 -1.03711,-1.103515 0.389456,-1.45945 0.796686,-2.958473 1.38086,-3.867188 C 31.396033,21.429088 32.011905,21 33,21 Z"/>
 <path style="fill:#ffffff;fill-rule:evenodd" d="m 10,16 0,10 c 2.5e-4,0.215132 0.0352,0.428814 0.103516,0.632812 0,0 0.386285,1.157199 1.359375,2.21875 C 12.43598,29.913114 14.178571,31 16.5,31 c 2.321429,0 4.06402,-1.086886 5.037109,-2.148438 0.97309,-1.061551 1.359375,-2.21875 1.359375,-2.21875 C 22.964796,26.428814 22.99975,26.215132 23,26 l 0,-2.968375 c 0.297106,0.399446 0.234171,0.403216 0.556641,0.810547 0.375777,0.474666 0.862008,0.870706 1.267578,1.339843 C 24.045856,29.445496 24,35.057397 24,36 l 4,0 c 0,-0.701341 0.113486,-3.170303 0.400391,-5.888672 C 29.763054,31.146895 31.227845,32 33,32 36.033333,32 38.36748,30.577107 39.5625,28.699219 40.75752,26.82133 41,24.722222 41,23 41,20.833333 39.86712,18.974123 38.353516,17.796875 36.839911,16.619627 34.944444,16 33,16 c -2.511905,0 -4.521033,0.170896 -5.728516,2.049203 -0.484053,0.752972 -0.832976,1.598616 -1.167968,2.449219 C 24.747071,18.65942 23.512788,16.785567 23,15.999984 23,16 23,16 23,16 l -4,0 0,2 0,7.523438 c -0.04171,0.101803 -0.09067,0.274342 -0.412109,0.625 C 18.18598,26.586886 17.678571,27 16.5,27 15.321429,27 14.81402,26.586886 14.412109,26.148438 14.090673,25.79778 14.041711,25.625241 14,25.523438 L 14,16 Z m 23,4 c 1.055556,0 2.160089,0.380373 2.896484,0.953125 C 36.63288,21.525877 37,22.166667 37,23 37,24.277778 36.74248,25.67867 36.1875,26.550781 35.63252,27.422893 34.966667,28 33,28 c -0.45,0 -1.523587,-0.434997 -2.708984,-1.416016 -0.341807,-0.282874 -0.685593,-0.758856 -1.03711,-1.103515 0.389456,-1.45945 0.796686,-2.958473 1.38086,-3.867188 C 31.396033,20.429088 32.011905,20 33,20 Z"/>
</svg>
